X:0493
T:Capt. O Kain.
C:Irish.
M:3/4
L:1/8
Q:1/4=80 "Slow"
I: :: ::
Z:Jack Campin * www.campin.me.uk * 2009
K:G Minor
GF|D2 G2  A2|   B4    AG|   AB cB  AG   |F3  G A2|\
   B2 d2  B2|   dc BA GF|   D2 G2  G2   |G4     :|
A2|Bc d2  d2|   d3  c B2|   AB c2  c2   |c4    f2|\
   d2 g2 ^f2|   g3  a b2|   d2 g2 ^f2   |g4    a2|
   b2 a2  g2|{g}f2 e2 d2|{d}c2 BA  f/g/a|F2 G2 A2|\
   B2 d2  B2|   dc BA GF|   D2 G2  G2   |G4     :|
<end>
<start>
